X:1
T: Glenavon Forest
C:Alexander Walker
R:Strathspey
Q: 128
K:Gm
M:4/4
L:1/16
|:d2|B3F FFF2 D3F B,3F|B3F FFF2 B3c d3c|B3F FFF2 D3F B,3F|B3c d3c BG3 G2d2|
B3F FFF2 D3F B,3F|B3F FFF2 B3c d3c|B3F FFF2 D3F B,3F|B3c d3c BG3 G2g2|
d3g b3g c3f a3f|d3g b3g d'3g b3g|d3g b3g c3f a3A|B3d c3A BG3 G2g2|
d3g b3g c3f a3f|d3g b3g d'3g b3g|f3g d3f c3d B3c|d3f c3A BG3 G2:|
